X: 2323
M: C
L: 1/8
K: G
uG>uB |\
vd2ue>u^c d>BG>B | d>^ce>c d2 (3(def) |\
g>fe>d c>BA>G | F>GA>B A2 (A>B) |\
c2d>B c>AF>A |
c>Bd>B c2 (3(cdc) |\
a>gf>e d>ed>c |[1 c2B2B2 :|[2 B2G2G2 \
|: (ug>f) |\
(3ege c2 (3ege c2 | (3BdB G2 G>BA>G |
(3ege c2 (3ege c2 | (3BdB G2 G>BA>G |\


